X: 21126
T: Karula Mehe Mesileib
R: waltz
M: 3/4
K: Amajor
a2 ab ag|ba ec eg|a2 ab ag|ba ec ec|
d2 fd fg|ag ec ec|d2 fd fg|ag ec ec|Bc BG BG|A2 A4:|
|:e2 ef ed|c2 ec ec|d2 ef ed|c2 ec ec|B2 BE BE|Ac ec ec|
Ac ef ed|c2 ec ec|d2 ef ed|c2 ec ec|B2 ag eg|a2 a4:|
|:a2 e2 ed|c2 e2 fg|a2 e2 ed|c2 e2 fg|a2 e2 ed|c2 e2 fg|a2 e2 ed|c2 ec ec|
d2 ef ed|c2 ec ec|d2 ef ed|c2 ec ec|B2 ag eg|a2 a4:|

